X: 1
T: Heels Over Head
M: 9/8
L: 1/8
R: slip jig
K: Gmaj
G2 B AGA BGE|DGB ADD (B/c/d)g|G2 B AGA ~B3|~c3 (E/F/G)E D2 F|
G2 B AGA BGE|DGB ADD (B/c/d)g|bge g2 d (B/c/d)f|gbg (f/g/a)f e2 z:|
|:e2 b bge ~g3|ebe bge (B/c/d)B|e3 bge ~d3|Adf ~a3 baf|
e3 bge ~g2 B|eBe bge (B/c/d)f|g2 b (f/g/a)f (e/f/g)e|(B/c/d)B AGF E2 z:|
|:BGE {F/G/}E/E/E E BGE|D3 ed^c ded|BGE {F/G/}E/E/E E Bef|gbg (f/g/a)f e2 d|
BGE {F/G/}E/E/E E BGE|D3 ed^c def|g2 e a2 z b2 a|gfe BAF E2 z:|
